X: 283
T: Hop High Ladies [1]
B: canberra pickers and fiddlers
B: tunes
M:C|
L:1/8
Q: 1/4=100
K:G
V:1 
[G,2G2])Bc dBGA|BcBA BcBA|GABc dBGB|A2AB AABA|
GABc dBGA|BcBA B2d2|e2ed Bdef|gedB A4 :| 
[]G2gg efgA|BcBA BcBA|[G,G]Agg efgg|a2 ab a2ge|
degg efgA|BcBA Bde[df]|e2ed Bdef|gedB A4:|
% abcbook-tune_id 63da5934d4aef99dc5b46fd6
% abcbook-tune_composer_id 
% abcbook-link-0 https://www.youtube.com/watch?v=GwroaD0oeeM
% abcbook-boost 0
% abcbook-difficulty 0
% abcbook-tags canberra pickers and fiddlers,old time tunes,© free
% abcbook-tablature 
% abcbook-transpose 
% abcbook-tuning GDAD
% abcbook-lastupdated 1705708031907
% abcbook-src-url https://tunebook.net/scrape/tunes.abc
% abcbook-soundfonts 
% abcbook-repeats 1
%%gchordfont "itim-music,Itim" 20

